web/packages/design/src/ResourceIcon/assets/twitter-dark.svg

<svg width="72" height="72" viewBox="0 0 72 72" fill="none" xmlns="http://www.w3.org/2000/svg">
<g clip-path="url(#clip0_16974_12094)">
<path d="M43.2038 30.4895L69.4311 0.00244141H63.2161L40.4429 26.474L22.2541 0.00244141H1.27539L28.7805 40.0321L1.27539 72.0024H7.49077L31.5398 44.0476L50.7485 72.0024H71.7272L43.2023 30.4895H43.2038ZM34.691 40.3847L31.9041 36.3987L9.73026 4.68129H19.2767L37.1713 30.2782L39.9581 34.2643L63.219 67.5364H53.6725L34.691 40.3862V40.3847Z" fill="white"/>
</g>
<defs>
<clipPath id="clip0_16974_12094">
<rect width="72" height="72" fill="white" transform="translate(0 0.00244141)"/>
</clipPath>
</defs>
</svg>

<svg xmlns="http://www.w3.org/2000/svg" width="72" height="72" fill="none" viewBox="0 0 72 72"><g clip-path="url(#a)"><path fill="#fff" d="M43.204 30.49 69.43.002h-6.215L40.443 26.474 22.254.002H1.275l27.506 40.03-27.506 31.97h6.216L31.54 44.048l19.209 27.954h20.978L43.202 30.49zm-8.513 9.895-2.787-3.986L9.73 4.68h9.547L37.17 30.278l2.787 3.986L63.22 67.536h-9.547l-18.981-27.15z"/></g><defs><clipPath id="a"><path fill="#fff" d="M0 .002h72v72H0z"/></clipPath></defs></svg>
